app/src/main/assets/symbols/shopping/ice_cream.svg

<svg xmlns:dc="http://purl.org/dc/elements/1.1/" xmlns:cc="http://creativecommons.org/ns#" xmlns:rdf="http://www.w3.org/1999/02/22-rdf-syntax-ns#" xmlns:svg="http://www.w3.org/2000/svg" xmlns="http://www.w3.org/2000/svg" version="1.1" width="100%" height="100%" viewBox="0 0 16 16" id="svg2">
  <metadata id="metadata8">
    <rdf:RDF>
      <cc:Work rdf:about="">
        <dc:format>image/svg+xml</dc:format>
        <dc:type rdf:resource="http://purl.org/dc/dcmitype/StillImage"/>
        <dc:title/>
      </cc:Work>
    </rdf:RDF>
  </metadata>
  <defs id="defs6"/>
  <rect width="16" height="16" x="0" y="0" id="canvas" style="fill:none;stroke:none;visibility:hidden"/>
  <path d="M 5,0 C 3.3431457,0 2,1.3431457 2,3 2,3.3555333 2.0739786,3.6835283 2.1875,4 l 5.625,0 C 7.9260214,3.6835283 8,3.3555333 8,3 8,1.3431457 6.6568543,0 5,0 z M 9,0 C 8.5961418,0 8.2266723,0.105305 7.875,0.25 8.5629725,0.96841289 9,1.9267594 9,3 9,3.3467764 8.931082,3.6790098 8.84375,4 L 11.8125,4 C 11.926021,3.6835283 12,3.3555333 12,3 12,1.3431457 10.656854,0 9,0 z M 3.25,5 7,14 10.75,5 3.25,5 z" id="ice-cream" style="fill:#ac39ac;fill-opacity:1" transform="translate(1,1)"/>
</svg>

<?xml version="1.0" encoding="UTF-8"?>
<svg version="1.1" viewBox="0 0 16 16" xmlns="http://www.w3.org/2000/svg" xmlns:cc="http://creativecommons.org/ns#" xmlns:dc="http://purl.org/dc/elements/1.1/" xmlns:rdf="http://www.w3.org/1999/02/22-rdf-syntax-ns#">
<metadata>
<rdf:RDF>
<cc:Work rdf:about="">
<dc:format>image/svg+xml</dc:format>
<dc:type rdf:resource="http://purl.org/dc/dcmitype/StillImage"/>
<dc:title/>
</cc:Work>
</rdf:RDF>
</metadata>
<rect width="16" height="16" fill="none" visibility="hidden"/>
<path transform="translate(1,1)" d="m5 0c-1.6569 0-3 1.3431-3 3 0 0.35553 0.073979 0.68353 0.1875 1h5.625c0.11352-0.31647 0.1875-0.64447 0.1875-1 0-1.6569-1.3431-3-3-3zm4 0c-0.40386 0-0.77333 0.1053-1.125 0.25 0.68797 0.71841 1.125 1.6768 1.125 2.75 0 0.34678-0.068918 0.67901-0.15625 1h2.9688c0.11352-0.31647 0.1875-0.64447 0.1875-1 0-1.6569-1.3431-3-3-3zm-5.75 5 3.75 9 3.75-9h-7.5z" fill="#ac39ac"/>
</svg>
